!!!OTL: Der lobgesang Gott der Vatter won uns bey. / Gebessert und Christlich corrigirt von Dr. Martin Luther.
!!!ARE: Europa, Mitteleuropa, Deutschland
!!!SCT: A0569B
!!!OPR: 569a. Gesang zu Bittfahrten.
!!!TXL: @@DE, (@@LAT)
!!!YEM: Copyright 1995, estate of Helmut Schaffrath.
**kern	**text
!! Mixed meters:  4/1; 6/1
*M6/1	*
*met(c|)	*
*clefC3	*
*k[b-]	*
*F:ion	*
=1	=1
!LO:TX:a:t=jon. tr.	!
{1c	Gott
1c	der
1d	Va-
1e	-ter
=2	=2
1f	won
1f	vns
1e}	bey,
{1d	vnd
=3	=3
1f	las
1c	vns
1A	nicht
1B-	ver-
=4	=4
*M6/1	*
*lig	*
0A	-der-
0G	.
*Xlig	*
0F}	-ben,}
=5	=5
*M4/1	*
{1c	Mach
1c	vns
1d	al-
1e	-ler
=6	=6
1f	ſun-
1f	-den
1e}	frey,
{1d	vnd
=7	=7
1f	helff
1c	vns
1A	ſe-
1B-	-lig
=8	=8
*M6/1	*
*lig	*
0A	ſter-
0G	.
*Xlig	*
0F}	-ben,}
=9	=9
*M4/1	*
{1F	Für
1G	dem
1A	Teuf-
1A	-fel
=10	=10
1F	vns
1G	be-
1A	-war,
2r}	.
{2f	halt
=11	=11
1e	vns
1f	bey
1.g	fe-
2f	-ſtem
=12	=12
*M6/1	*
*lig	*
0e	glau-
0d	.
*Xlig	*
1c\ll}	-ben
{2r	.
2F	Vnd
=13	=13
*M4/1	*
1c	auff
1f	dich
1e	las
1c	vns
=14	=14
2.d	baw-
4c	.
1B-	.
1A	-en,
2r}	.
{2G	aus
=15	=15
1A	hertʒen
1A	.
1.c	grund
2B-	ver-
=16	=16
*M6/1	*
*lig	*
0A	-reaw-
0G	.
*Xlig	*
1F	-en.}
!LO:TX:a:t=P:2r in the source:problem	!
!LO:N:vis=2	!
1r}	.
=17	=17
*M4/1	*
{1F	Dir
1G	vns
1A	laſ-
1A	-ſen
=18	=18
1F	gantʒ
1G	vnd
1A	gar,
2r}	.
{2f	mit
=19	=19
1e	al-
1f	-len
1.g	rech-
2f	-ten
=20	=20
*M6/1	*
*lig	*
0e	Chri-
0d	.
*Xlig	*
1c\ll}	-ſten
{2r	.
2F	Ent-
=21	=21
*M4/1	*
1c	-flie-
1f	-hen
1e	Teuffels
1c	.
=22	=22
2.d	li-
4c	.
1B-	.
1A	-ſten,
2r}	.
{2G	mit
=23	=23
1A	waffen
1A	.
1.c	Gotts
2B-	vns
=24	=24
*M6/1	*
*lig	*
0A	fri.
0G	.
*Xlig	*
1F	-ſten.}
!LO:TX:a:t=P:2r in the source:problem	!
!LO:N:vis=2	!
1r}	.
=25	=25
*M4/1	*
{1F	A-
1G	-men,
1A	a-
1A	-men,
=26	=26
1F	das
1G	ſey
1A	war,
2r}	.
{2A	ſo
=27	=27
1.c	ſin-
2B-	-gen
1A	wir
1B-	Hal-
=28	=28
1A	-le-
1G	-lu-
0F/ll}	-ja.
==	==
!!!GTL: Geistliche Volkslieder
!!!AGN: Romanze, Ballade, Lied, religioeses Lied
!! Walthers Gsgb 1524 No. 34.
!!!ONB: ESAC (Essen Associative Code) Database: ALTDEU
!!!AMT: irregular
!!!AIN: vox
!!!EED: Helmut Schaffrath
!!!EEV: 1.0
!!!RDF**kern: l = terminal long
!!!AMD: Ionian
!!!URL-scan: https://rosdok.uni-rostock.de/mcrviewer/recordIdentifier/rosdok_ppn738218359/iview2/phys_0754.iview2?x=-171.61612513683053&y=208.296883599367&scale=0.5692057392176044&rotation=0&layout=singlePageLayout&logicalDiv=log_0021
!!!ENC: Anna Maria Matuszewska
!!!EEV: 2024/21/03
*-	*-
